ERK
CUT[GRUENES GRAS UNTER MEINEN FUESSEN]
REG[Europa, Mitteleuropa, Deutschland]
TRD[]
FKT[]
SIG[E1885]
KEY[E1885   08  G 2/4]
MEL[533_  533_
    6543  2_10
    5536  5530
    6542  2_10 //]
BEM[]
MEL_SEM[-3 0 3 -3 0 5 -2 -2 -1 -2 -2 7 0 -3 5 -2 0 -3 5 -2 -2 -3 0 -2]
MEL_RAW[533  533
    6543  210
    5536  5530
    6542  210]
NO_REP[5353
    6543210
    536530
    654210]
RTM[xxx_  xxx_
    xxxx  x_xx
    xxxx  xxxx
    xxxx  x_xx]
SCL_DEG[123456]
SCL_SEM[2 2 1 2 2]

